files/2/64x64/places/folder-templates.svg

<?xml version="1.0" encoding="UTF-8" standalone="no"?>
<svg
   xmlns:dc="http://purl.org/dc/elements/1.1/"
   xmlns:cc="http://creativecommons.org/ns#"
   xmlns:rdf="http://www.w3.org/1999/02/22-rdf-syntax-ns#"
   xmlns:svg="http://www.w3.org/2000/svg"
   xmlns="http://www.w3.org/2000/svg"
   xmlns:sodipodi="http://sodipodi.sourceforge.net/DTD/sodipodi-0.dtd"
   xmlns:inkscape="http://www.inkscape.org/namespaces/inkscape"
   width="64"
   height="64"
   viewBox="0 0 64 64"
   id="svg3071"
   version="1.1"
   inkscape:version="0.48.5 r10040"
   sodipodi:docname="folder-templates.svg">
  <metadata
     id="metadata3109">
    <rdf:RDF>
      <cc:Work
         rdf:about="">
        <dc:format>image/svg+xml</dc:format>
        <dc:type
           rdf:resource="http://purl.org/dc/dcmitype/StillImage" />
      </cc:Work>
    </rdf:RDF>
  </metadata>
  <defs
     id="defs3107" />
  <sodipodi:namedview
     pagecolor="#ffffff"
     bordercolor="#666666"
     borderopacity="1"
     objecttolerance="10"
     gridtolerance="10"
     guidetolerance="10"
     inkscape:pageopacity="0"
     inkscape:pageshadow="2"
     inkscape:window-width="1280"
     inkscape:window-height="969"
     id="namedview3105"
     showgrid="false"
     inkscape:zoom="3.6875"
     inkscape:cx="-9.7627119"
     inkscape:cy="33.084746"
     inkscape:window-x="0"
     inkscape:window-y="0"
     inkscape:window-maximized="1"
     inkscape:current-layer="svg3071" />
  <path
     style="fill:#e9b080;fill-opacity:1;stroke:none"
     d="M 9,8.0000002 C 7.536083,8.0000002 6,9.5112226 6,11 l 0,1 -3,0 c -1.470099,0 -3,1.49533 -3,3 l 0,38 c 0,2 1,3 3,3 l 58,0 c 1.567614,0 3,-1.358342 3,-3 l 0,-33 c 0,-1.504928 -1.455038,-3 -3,-3 l -3,0 0,-6 C 58,9.538844 56.546781,8.0000002 55,8.0000002 z"
     id="path6"
     inkscape:connector-curvature="0"
     sodipodi:nodetypes="ssccssssscccsss" />
  <path
     style="fill:#000000;fill-opacity:0.32156864"
     inkscape:connector-curvature="0"
     id="path3081"
     d="m 28,28 0,2 2,0 0,-2 z" />
  <path
     inkscape:connector-curvature="0"
     style="fill:#000000;fill-opacity:0.32156863;stroke:none"
     d="M 9,8.0000002 C 7.536083,8.0000002 6,9.5112226 6,11 l 0,1 -3,0 c -1.470099,0 -3,1.49533 -3,3 l 0,38 c 0,2 1,3 3,3 l 58,0 c 1.567614,0 3,-1.358342 3,-3 l 0,-33 c 0,-1.504928 -1.455038,-3 -3,-3 l -3,0 0,-6 C 58,9.538844 56.546781,8.0000002 55,8.0000002 l -46,0 z M 3,14 37,14 c 0.590175,0 1,0.51477 1,1 l 0,4 23,0 c 0.505551,0 1,0.508742 1,1 l 0,33 c 0,0.521292 -0.478766,1 -1,1 L 3,54 C 2.535705,54 2,53.603654 2,53 L 2,15 c 0,-0.492405 0.516529,-1 1,-1 z"
     id="path3778" />
  <path
     style="fill:#000000;fill-opacity:0.32156864"
     inkscape:connector-curvature="0"
     id="path3083"
     d="m 36,28 0,2 2,0 0,2 2,0 0,-2.664062 C 40,28 38.671875,28 38.671875,28 z" />
  <path
     style="fill:#000000;fill-opacity:0.32156864"
     inkscape:connector-curvature="0"
     id="path3085"
     d="m 32,28 0,2 2,0 0,-2 z" />
  <path
     style="fill:#000000;fill-opacity:0.32156864"
     inkscape:connector-curvature="0"
     id="path3087"
     d="m 22,32 2,0 0,-2 2,0 0,-2 -2.664062,0 C 22,28 22,29.328125 22,29.328125 z" />
  <path
     style="fill:#000000;fill-opacity:0.32156864"
     inkscape:connector-curvature="0"
     id="path3089"
     d="m 26,46 0,-2 -2,0 0,-2 -2,0 0,2.664062 C 22,46 23.328125,46 23.328125,46 z" />
  <path
     style="fill:#000000;fill-opacity:0.32156864"
     inkscape:connector-curvature="0"
     id="path3091"
     d="m 34,46 0,-2 -2,0 0,2 z" />
  <path
     style="fill:#000000;fill-opacity:0.32156864"
     inkscape:connector-curvature="0"
     id="path3093"
     d="m 30,46 0,-2 -2,0 0,2 z" />
  <path
     style="fill:#000000;fill-opacity:0.32156864"
     inkscape:connector-curvature="0"
     id="path3095"
     d="m 22,40 2,0 0,-2 -2,0 z" />
  <path
     style="fill:#000000;fill-opacity:0.32156864"
     inkscape:connector-curvature="0"
     id="path3097"
     d="m 22,36 2,0 0,-2 -2,0 z" />
  <path
     style="fill:#000000;fill-opacity:0.32156864"
     inkscape:connector-curvature="0"
     id="path3099"
     d="m 40,42 -2,0 0,2 -2,0 0,2 2.664062,0 C 40,46 40,44.671875 40,44.671875 z" />
  <path
     style="fill:#000000;fill-opacity:0.32156864"
     inkscape:connector-curvature="0"
     id="path3101"
     d="m 40,34 -2,0 0,2 2,0 z" />
  <path
     style="fill:#000000;fill-opacity:0.32156864"
     inkscape:connector-curvature="0"
     id="path3103"
     d="m 40,38 -2,0 0,2 2,0 z" />
</svg>

<svg width="64" xmlns="http://www.w3.org/2000/svg" height="64" viewBox="0 0 64 64" xmlns:xlink="http://www.w3.org/1999/xlink">
<g style="stroke:#e9a439">
<path style="fill:#e9a439" d="M 4.345703 24.5 C 3.886719 24.453125 3.5 23.992188 3.5 23.498047 L 3.5 4.505859 C 3.5 3.980469 3.945312 3.5 4.4375 3.5 L 27.5625 3.5 C 28.054688 3.5 28.5 3.980469 28.5 4.505859 L 28.5 20.742188 C 28.5 21.269531 27.78125 22.025391 27.291016 22.025391 L 18.826172 22.009766 L 18.826172 23.333984 C 18.826172 23.857422 18.414062 24.5 17.925781 24.5 L 4.4375 24.5 C 4.408203 24.5 4.378906 24.5 4.345703 24.5 Z " transform="matrix(2 0 0 2 0 2)"/>
<path style="fill:#f5c14e" d="M 1.548828 5.5 C 0.980469 5.546875 0.5 6.007812 0.5 6.501953 L 0.5 25.494141 C 0.5 26.019531 1.052734 26.5 1.662109 26.5 L 30.337891 26.5 C 30.947266 26.5 31.5 26.019531 31.5 25.494141 L 31.5 9.257812 C 31.5 8.730469 30.609375 7.974609 30 7.974609 L 19.503906 7.990234 L 19.503906 6.666016 C 19.503906 6.142578 18.994141 5.5 18.386719 5.5 L 1.662109 5.5 C 1.626953 5.5 1.589844 5.5 1.548828 5.5 Z " transform="matrix(2 0 0 2 0 2)"/>
</g>
<g style="fill:#e9a439">
<path d="M 28 28 L 28 30 L 30 30 L 30 28 Z "/>
<path d="M 36 28 L 36 30 L 38 30 L 38 32 L 40 32 L 40 29.335938 C 40 28 38.671875 28 38.671875 28 Z "/>
<path d="M 32 28 L 32 30 L 34 30 L 34 28 Z "/>
<path d="M 22 32 L 24 32 L 24 30 L 26 30 L 26 28 L 23.335938 28 C 22 28 22 29.328125 22 29.328125 Z "/>
<path d="M 26 46 L 26 44 L 24 44 L 24 42 L 22 42 L 22 44.664062 C 22 46 23.328125 46 23.328125 46 Z "/>
<path d="M 34 46 L 34 44 L 32 44 L 32 46 Z "/>
<path d="M 30 46 L 30 44 L 28 44 L 28 46 Z "/>
<path d="M 22 40 L 24 40 L 24 38 L 22 38 Z "/>
<path d="M 22 36 L 24 36 L 24 34 L 22 34 Z "/>
<path d="M 40 42 L 38 42 L 38 44 L 36 44 L 36 46 L 38.664062 46 C 40 46 40 44.671875 40 44.671875 Z "/>
<path d="M 40 34 L 38 34 L 38 36 L 40 36 Z "/>
<path d="M 40 38 L 38 38 L 38 40 L 40 40 Z "/>
</g>
</svg>
